actions/24/rabbitvcs-merge.svg

<?xml version="1.0" encoding="UTF-8" standalone="no"?>
<svg
   width="24"
   height="24"
   version="1.1"
   id="svg9"
   sodipodi:docname="rabbitvcs-merge.svg"
   inkscape:version="1.1.2 (0a00cf5339, 2022-02-04)"
   xmlns:inkscape="http://www.inkscape.org/namespaces/inkscape"
   xmlns:sodipodi="http://sodipodi.sourceforge.net/DTD/sodipodi-0.dtd"
   xmlns="http://www.w3.org/2000/svg"
   xmlns:svg="http://www.w3.org/2000/svg">
  <sodipodi:namedview
     id="namedview11"
     pagecolor="#000000"
     bordercolor="#666666"
     borderopacity="1.0"
     inkscape:pageshadow="2"
     inkscape:pageopacity="0"
     inkscape:pagecheckerboard="0"
     showgrid="false"
     inkscape:zoom="28.416667"
     inkscape:cx="11.982405"
     inkscape:cy="11.964809"
     inkscape:window-width="1482"
     inkscape:window-height="967"
     inkscape:window-x="0"
     inkscape:window-y="29"
     inkscape:window-maximized="1"
     inkscape:current-layer="g7" />
  <defs
     id="defs3">
    <style
       id="current-color-scheme"
       type="text/css">
   .ColorScheme-Text { color:#eeeeec; } .ColorScheme-Highlight { color:#367bf0; } .ColorScheme-NeutralText { color:#ffcc44; } .ColorScheme-PositiveText { color:#3db47e; } .ColorScheme-NegativeText { color:#dd4747; }
  </style>
  </defs>
  <g
     transform="translate(4,4)"
     id="g7">
    <path
       style="fill:currentColor"
       class="ColorScheme-Text"
       d="M 2,2 C 2,2 1,2 1,3 v 1 c 0,1 1,1 1,1 h 3 v 6 H 2 c 0,0 -1,0 -1,1 v 1 c 0,1 1,1 1,1 h 5 c 0,0 1,0 1,-1 v -3 h 2 v 1.13928 l 0.702119,0.299025 v 0 l 3.686769,-2.9494151 v 0 L 14.379442,7.5035534 10.70937,4.567496 10,4.7707616 v 0 V 6 H 8 V 3 C 8,2 7,2 7,2 Z"
       id="path5"
       sodipodi:nodetypes="cssccccssccscccccccccccccscc" />
  </g>
</svg>

<svg xmlns="http://www.w3.org/2000/svg" width="24" height="24" version="1.1">
 <defs>
  <style id="current-color-scheme" type="text/css">
   .ColorScheme-Text { color:#eeeeec; } .ColorScheme-Highlight { color:#367bf0; } .ColorScheme-NeutralText { color:#ffcc44; } .ColorScheme-PositiveText { color:#3db47e; } .ColorScheme-NegativeText { color:#dd4747; }
  </style>
 </defs>
 <g transform="translate(4,4)">
  <path style="fill:currentColor" class="ColorScheme-Text" d="M 2,2 C 2,2 1,2 1,3 V 4 C 1,5 2,5 2,5 H 5 V 11 H 2 C 2,11 1,11 1,12 V 13 C 1,14 2,14 2,14 H 7 C 7,14 8,14 8,13 V 10 H 10 V 12 L 15,8 10,4 V 6 H 8 V 3 C 8,2 7,2 7,2 Z"/>
 </g>
</svg>
